X: 3453
T: Betty Black
R: barndance
M: 4/4
K: Dmajor
|:F|GFED A2 d2|GFED [A,2A2] D2|GFED A2 d2|A2 D2 D3:|
|:g|fefg a2 A2|BABc d2 [D2g2]|fefg a2 A2|B2 c2 d3:|
[DF]|:E2- EF G2 [FA][EG]|FDFA dAFD|E2 EF G2 AG|F2 [D2d2] [D3d3]:|
|:g|f4 f4|Adfd Adf[dg]|f4 f3 f|Acec d3:|
|:g|f2 d2 dcBA|FAGB Aceg|f2 d2 dcB[Ad]|A2 D2 D3:|
|:A|defg agfe|faec dcBA|defg agfe|faec d3:|

